kora-light/actions/scalable/fcitx-chn.svg

<svg xmlns="http://www.w3.org/2000/svg" width="16" height="16" version="1.1">
 <defs>
  <style id="current-color-scheme" type="text/css">
   .ColorScheme-Text { color:#444444; } .ColorScheme-Highlight { color:#4285f4; }
  </style>
 </defs>
 <path style="fill:currentColor" class="ColorScheme-Text" d="M 2,0 C 0.892,0 0,0.892 0,2 V 14 C 0,15.108 0.892,16 2,16 H 14 C 15.108,16 16,15.108 16,14 V 2 C 16,0.892 15.108,0 14,0 Z M 7,2 H 8 V 4 H 13 V 11 H 12 V 10 H 8 V 14 H 7 V 10 H 4 V 11 H 3 V 4 H 7 Z M 4,5 V 9 H 7 V 5 Z M 8,5 V 9 H 12 V 5 Z"/>
</svg>

<svg xmlns="http://www.w3.org/2000/svg" style="fill-rule:evenodd;clip-rule:evenodd;stroke-linejoin:round;stroke-miterlimit:2" width="100%" height="100%" version="1.1" viewBox="0 0 16 16" xml:space="preserve">
 <defs>
  <style id="current-color-scheme" type="text/css">
   .ColorScheme-Text { color:#444444; } .ColorScheme-Highlight { color:#4285f4; } .ColorScheme-NeutralText { color:#ff9800; } .ColorScheme-PositiveText { color:#4caf50; } .ColorScheme-NegativeText { color:#f44336; }
  </style>
 </defs>
 <path style="fill:currentColor;" class="ColorScheme-Text" d="M7,2l1,0l0,2l5,0l0,7l-1,0l0,-1l-4,0l0,4l-1,0l0,-4l-3,0l0,1l-1,0l0,-7l4,0l0,-2Zm-3,3l0,4l3,0l0,-4l-3,0Zm4,0l0,4l4,0l0,-4l-4,0Z"/>
</svg>
